X: 1
T:Gan Ainm
M:4/4
L:1/8
K:G
(3DEF|GFGA (3Bcd ed|BdBG DGBG|ABAF DFAF|GABc d2\
(3DEF|GFGA (3Bcd ed|BdBG DGBG|ABAF DFAF|GBAF G2::\
Bd|gfga gdBd|fdAd f2gf|ecAG FDEF|GABc d2ef|\
gfga gdBd|fdAd f2gf|ecAG FDEF|GBAF G2::(3DEF|\
GGBG GcGG|BGGc GGBG|FGAB cAFD|GABc d2(3DEF|\
GGBG GcGG|BGGc GGBG|FGAB cAFD|GBAF G2:|
